X: 2
T: Kilshanny Thunder
R: jig
M: 6/8
L: 1/8
K: Amix
|:GBd ecG|~A3 cde|g2g fdc|edc ~A3|
GBd ecG|~A3 deg|edc A3|1 edc A3:|2 cde a3||
|:ede g2e|a2e g2c|edc A3|cde a3|
ede ~g3|~e3 deg|edc A3|1 cde a3:|2 edc A3||

